X:283
T: Daqi huagun xilianlian
N: C1780
O: China, Jiangsu Yancheng
S: III, 428, 2)]
R: Xiaodiao, Huagun diao]
M: 2/4
L: 1/16
K: C
d2e2c2c2 | d2e2c4 | G2A2c2d2 | A8
A2c2A2G2 | D2E2G4 | G2D2EGED | C8
E2C2D4 | G2E2D4 | G2AcG2E2 | G2E2D4
d2e2d2c2 | A2c2A2G2 | d2ded2c2 | A2c2A2G2
G3AG2E2 | D2C2D2z2
G2G4A2 | d2e2c4 | e2d2c2A2 | G6
A2 | e2d2c2d2 | c8

